X: 29
M: none
L: 1/8
K: F
c2F2 cdcB | c2F2 F2fg | agfd cd fg | a2f2 f3F |
d2f2 c2d2 | A2c2 G2A2 | F4 F2G2 | A3c A2GF |
agfd cdcA | c2F2 F2fg | a/g/a/g/ fd cd fg | a2f2 f3F |
d2f2 c2d2 | A2c2 G2A2 | F4 F2fg | a2fe dc df |\
a2f2 f2 |]


